icons-common/gas-sensor.svg

<svg height="1em" width="auto" viewBox="0 0 105 105" fill="currentColor" xmlns="http://www.w3.org/2000/svg">
    <path d="M53.0166 27.6227C66.4583 27.6227 77.4285 38.7643 77.4285 52.416C77.4285 66.0678 66.4583 77.2094 53.0166 77.2094C39.5749 77.2094 28.6047 66.0678 28.6047 52.416C28.6047 38.7643 39.5749 27.6227 53.0166 27.6227ZM53.0166 19.916C35.3255 19.916 21.0166 34.4485 21.0166 52.416C21.0166 70.3835 35.3255 84.916 53.0166 84.916C70.7077 84.916 85.0166 70.3835 85.0166 52.416C85.0166 34.4485 70.6643 19.916 53.0166 19.916Z"
          />
    <path d="M63.8568 61.884C66.4151 55.0582 66.4151 49.7296 63.8568 42.9477C63.163 41.4504 63.8568 39.6008 65.4178 39.0284C66.285 38.7201 67.1956 38.8522 67.9327 39.2926C72.0953 42.0229 74.4801 47.2634 74.4801 52.4159C74.4801 57.5683 72.0953 62.8529 67.9327 65.5392C66.6319 66.3759 64.8975 66.0236 64.0736 64.7025C63.5099 63.8217 63.5099 62.8088 63.9002 61.884H63.8568Z"
          />
    <path d="M42.1765 42.9477C39.6183 49.7735 39.6183 55.1021 42.1765 61.884C42.8703 63.3813 42.1765 65.2309 40.6156 65.8034C39.7483 66.1116 38.8378 65.9795 38.1006 65.5391C33.938 62.8088 31.5532 57.5683 31.5532 52.4158C31.5532 47.2634 33.938 41.9788 38.1006 39.2925C39.4015 38.4558 41.1359 38.8081 41.9597 40.1292C42.5234 41.01 42.5234 42.0229 42.1332 42.9477H42.1765Z"
          />
    <path d="M53.0168 62.3243C50.4152 62.3243 47.9437 61.3114 46.1225 59.4178C44.3014 57.5241 43.2607 55.058 43.2607 52.4157C43.2607 50.434 43.8244 48.5404 44.9084 46.911C45.9924 45.2816 47.5101 44.0045 49.2878 43.2558C51.0656 42.5072 53.0168 42.331 54.9247 42.6833C56.8326 43.0797 58.5236 44.0045 59.9111 45.4137C61.2987 46.8229 62.2093 48.5404 62.5995 50.4781C62.9897 52.3717 62.7729 54.3534 62.0358 56.203C61.2987 58.0085 60.0412 59.5499 58.4369 60.6508C56.8326 61.7518 54.9681 62.3243 53.0168 62.3243ZM53.0168 49.1129C52.5832 49.1129 52.1496 49.201 51.7594 49.3771C51.1523 49.6413 50.6754 50.0377 50.3285 50.5661C49.9816 51.0946 49.7648 51.7552 49.7648 52.4157C49.7648 53.2965 50.1117 54.1332 50.7187 54.7497C51.8027 55.8507 53.5805 56.0268 54.838 55.1461C55.3583 54.7938 55.7919 54.2653 56.0521 53.6928C56.3122 53.0763 56.3556 52.4157 56.2255 51.7992C56.0954 51.1386 55.7919 50.5661 55.3149 50.0817C54.838 49.6413 54.2743 49.289 53.6672 49.1569C53.4504 49.1569 53.2336 49.1129 53.0168 49.1129Z"
          />
</svg>

<svg xmlns="http://www.w3.org/2000/svg" width="auto" height="1em" fill="currentColor" viewBox="0 0 105 105">
    <path d="M53.017 27.623c13.441 0 24.411 11.141 24.411 24.793s-10.97 24.793-24.411 24.793-24.412-11.141-24.412-24.793 10.97-24.793 24.412-24.793m0-7.707c-17.692 0-32 14.533-32 32.5 0 17.968 14.308 32.5 32 32.5 17.69 0 32-14.532 32-32.5 0-17.967-14.353-32.5-32-32.5"/>
    <path d="M63.857 61.884c2.558-6.826 2.558-12.154 0-18.936-.694-1.498 0-3.347 1.56-3.92a2.95 2.95 0 0 1 2.516.265c4.162 2.73 6.547 7.97 6.547 13.123s-2.385 10.437-6.547 13.123c-1.301.837-3.036.485-3.86-.837-.563-.88-.563-1.893-.173-2.818zm-21.68-18.936c-2.559 6.825-2.559 12.154 0 18.936.693 1.497 0 3.347-1.561 3.92a2.95 2.95 0 0 1-2.515-.265c-4.163-2.73-6.548-7.97-6.548-13.123s2.385-10.437 6.548-13.123c1.3-.837 3.035-.485 3.859.836.563.881.563 1.894.173 2.819zm10.84 19.376c-2.602 0-5.073-1.013-6.895-2.906-1.82-1.894-2.861-4.36-2.861-7.002a9.87 9.87 0 0 1 1.647-5.505 9.9 9.9 0 0 1 4.38-3.655c1.778-.749 3.729-.925 5.637-.573a9.7 9.7 0 0 1 4.986 2.73 9.9 9.9 0 0 1 2.688 5.065c.39 1.894.174 3.875-.563 5.725a10 10 0 0 1-3.6 4.448 9.5 9.5 0 0 1-5.42 1.673m0-13.211a3.1 3.1 0 0 0-1.258.264 3.2 3.2 0 0 0-1.43 1.19 3.44 3.44 0 0 0-.564 1.849c0 .88.347 1.717.954 2.334 1.084 1.1 2.861 1.277 4.119.396.52-.352.954-.88 1.214-1.453.26-.617.304-1.277.173-1.894a3.3 3.3 0 0 0-.91-1.717c-.477-.44-1.04-.793-1.648-.925-.217 0-.433-.044-.65-.044"/>
</svg>
